dist/assets/img/sofa-icon-07.svg

<svg width="49" height="31" fill="none" xmlns="http://www.w3.org/2000/svg"><path d="M49 4h-.3c-.8-2.3-3-4-5.7-4H6C3.4 0 1.2 1.7.4 4H0v1h.1c-.1.3-.1.7-.1 1v22h49V6c0-.3 0-.7-.1-1h.1V4ZM6 1h37c2.1 0 3.8 1.2 4.6 3H1.4C2.2 2.2 4 1 6 1Zm42 26H1V9h47v18Zm0-19H1V6c0-.3 0-.7.1-1h46.8c.1.3.1.7.1 1v2ZM2 31h6v-1H2v1Zm39 0h6v-1h-6v1Z" fill="#383838"/></svg>

<svg width="49" height="31" viewBox="0 0 49 31" fill="none" xmlns="http://www.w3.org/2000/svg">
<path d="M49 4H48.7C47.9 1.7 45.7 0 43 0H6C3.4 0 1.2 1.7 0.4 4H0V5H0.1C0 5.3 0 5.7 0 6V28H49V6C49 5.7 49 5.3 48.9 5H49V4ZM6 1H43C45.1 1 46.8 2.2 47.6 4H1.4C2.2 2.2 4 1 6 1ZM48 27H1V9H48V27ZM48 8H1V6C1 5.7 1 5.3 1.1 5H47.9C48 5.3 48 5.7 48 6V8ZM2 31H8V30H2V31ZM41 31H47V30H41V31Z" fill="#383838"/>
</svg>
